actions/22x22-dark/object-order-raise.svg

<svg xmlns="http://www.w3.org/2000/svg" viewBox="0 0 22 22">
 <defs id="defs3051">
   <style type="text/css" id="current-color-scheme">
     .ColorScheme-Text {
       color:#f2f2f2;
     }
     </style>
 </defs>
   <path
      style="fill:currentColor;fill-opacity:1;stroke:none"
      d="m1.50784 4.44531c-.28139 0-.50781.22642-.50781.50781v.61328c0 .2814.22642.50782.50781.50782h8.61328c.2814 0 .50782-.22642.50782-.50782v-.61328c0-.28139-.22642-.50781-.50782-.50781zm-.0137 3.70313c-.27408 0-.49414.22005-.49414.49414v.64062c0 .27408.22006.49414.49414.49414h19.01172c.27408 0 .49414-.22006.49414-.49414v-.64062c0-.27409-.22006-.49414-.49414-.49414h-19.01172zm.0137 3.85156c-.28139 0-.50781.22642-.50781.50781v.61328c0 .28139.22642.50781.50781.50781h8.61328c.2814 0 .50782-.22642.50782-.50781v-.61328c0-.28139-.22642-.50781-.50782-.50781zm14.63477.14844c-.15925.00057-.31832.0616-.43946.18359l-3.80859 3.83594c-.24225.24401-.24205.6387.002.88086.24391.24215.63861.24.88086-.004l3.36914-3.39453 3.39453 3.37109c.24389.24215.63871.24.88086-.004.24237-.24389.24022-.63861-.004-.88086l-3.83599-3.80861c-.12195-.12105-.28013-.18026-.43945-.17968zm-14.63477 3.77734c-.28139 0-.50781.22642-.50781.50781v.61328c0 .2814.22642.50782.50781.50782h8.61328c.2814 0 .50782-.22642.50782-.50782v-.61328c0-.28139-.22642-.50781-.50782-.50781z"
      class="ColorScheme-Text" />
</svg>

<svg xmlns="http://www.w3.org/2000/svg" viewBox="0 0 22 22">
  <defs id="defs3051">
    <style type="text/css" id="current-color-scheme">
      .ColorScheme-Text {
        color:#f2f2f2
      }
      </style>
  </defs>
 <path 
     style="fill:currentColor;fill-opacity:1;stroke:none"      
	 class="ColorScheme-Text"
        d="m 1.50784,4.44531 c -0.28139,0 -0.50781,0.22642 -0.50781,0.50781 l 0,0.61328 c 0,0.2814 0.22642,0.50782 0.50781,0.50782 l 8.61328,0 c 0.2814,0 0.50782,-0.22642 0.50782,-0.50782 l 0,-0.61328 c 0,-0.28139 -0.22642,-0.50781 -0.50782,-0.50781 l -8.61328,0 z M 1.49414,8.14844 C 1.22006,8.14844 1,8.36849 1,8.64258 L 1,9.2832 c 0,0.27408 0.22006,0.49414 0.49414,0.49414 l 19.01172,0 C 20.77994,9.77734 21,9.55728 21,9.2832 L 21,8.64258 C 21,8.36849 20.77994,8.14844 20.50586,8.14844 l -19.01172,0 z M 1.50784,12 c -0.28139,0 -0.50781,0.22642 -0.50781,0.50781 l 0,0.61328 c 0,0.28139 0.22642,0.50781 0.50781,0.50781 l 8.61328,0 c 0.2814,0 0.50782,-0.22642 0.50782,-0.50781 l 0,-0.61328 C 10.62894,12.22642 10.40252,12 10.12112,12 l -8.61328,0 z m 14.63477,0.14844 c -0.15925,5.7e-4 -0.31832,0.0616 -0.43946,0.18359 l -3.80859,3.83594 c -0.24225,0.24401 -0.24205,0.6387 0.002,0.88086 0.24391,0.24215 0.63861,0.24 0.88086,-0.004 l 3.36914,-3.39453 3.39453,3.37109 c 0.24389,0.24215 0.63871,0.24 0.88086,-0.004 0.24237,-0.24389 0.24022,-0.63861 -0.004,-0.88086 L 16.58196,12.32792 C 16.46001,12.20687 16.30183,12.14766 16.14251,12.14824 Z M 1.50784,15.92578 c -0.28139,0 -0.50781,0.22642 -0.50781,0.50781 l 0,0.61328 c 0,0.2814 0.22642,0.50782 0.50781,0.50782 l 8.61328,0 c 0.2814,0 0.50782,-0.22642 0.50782,-0.50782 l 0,-0.61328 c 0,-0.28139 -0.22642,-0.50781 -0.50782,-0.50781 l -8.61328,0 z"
     />
</svg>
